icons/home-largedoor-circle-ch.svg

<svg width="24" height="24" viewBox="0 0 24 24" fill="none" xmlns="http://www.w3.org/2000/svg">
<path fill-rule="evenodd" clip-rule="evenodd" d="M17.5963 3.25C17.5963 2.83579 17.2605 2.5 16.8463 2.5C16.4321 2.5 16.0963 2.83579 16.0963 3.25V5.4188L14.2448 3.78946C12.9606 2.63674 11.0321 2.63675 9.74796 3.7895L4.73298 8.20268L4.71607 8.21959C3.90582 9.02984 3.29639 10.2118 3.29639 11.4499V18.5499C3.29639 20.1642 4.6322 21.4999 6.2464 21.4999H7.53531L7.54639 21.5L7.55746 21.4999H16.5353L16.5464 21.5L16.5575 21.4999H17.7464C19.4116 21.4999 20.8167 20.2022 20.6964 18.5211V11.4499C20.6964 10.254 20.2178 9.04131 19.2412 8.1863L19.2403 8.18549L17.5963 6.7388V3.25ZM15.7964 16.15V19.9999H8.29639V16.15C8.29639 15.7642 8.56062 15.5 8.94641 15.5H15.1464C15.5322 15.5 15.7964 15.7642 15.7964 16.15ZM17.2964 16.15V19.9999H17.7464C18.6702 19.9999 19.2576 19.3149 19.199 18.6122L19.1964 18.5811V11.4499C19.1964 10.6462 18.8753 9.8593 18.2525 9.31435L18.2509 9.31296L13.2447 4.9074C12.5299 4.2641 11.4629 4.2641 10.7481 4.9074L10.7419 4.913L5.7607 9.29638C5.17991 9.88487 4.79639 10.695 4.79639 11.4499V18.5499C4.79639 19.3357 5.4606 19.9999 6.2464 19.9999H6.79639V16.15C6.79639 14.9358 7.7322 14 8.94641 14H15.1464C16.3607 14 17.2964 14.9359 17.2964 16.15ZM10.7964 9.75C10.7964 9.05964 11.356 8.5 12.0464 8.5C12.7367 8.5 13.2964 9.05964 13.2964 9.75C13.2964 10.4404 12.7367 11 12.0464 11C11.356 11 10.7964 10.4404 10.7964 9.75ZM12.0464 7C10.5276 7 9.29639 8.23122 9.29639 9.75C9.29639 11.2688 10.5276 12.5 12.0464 12.5C13.5652 12.5 14.7964 11.2688 14.7964 9.75C14.7964 8.23122 13.5652 7 12.0464 7Z" fill="black"/>
</svg>

<svg xmlns="http://www.w3.org/2000/svg" fill="none" viewBox="0 0 24 24">
  <path fill="#000" fill-rule="evenodd" d="M17.596 3.25a.75.75 0 0 0-1.5 0v2.169l-1.851-1.63a3.356 3.356 0 0 0-4.497 0L4.733 8.204l-.017.017c-.81.81-1.42 1.992-1.42 3.23v7.1a2.97 2.97 0 0 0 2.95 2.95h11.5c1.666 0 3.07-1.298 2.95-2.979V11.45c0-1.196-.478-2.409-1.455-3.264l-1.645-1.447V3.25Zm-1.8 12.9V20h-7.5v-3.85c0-.386.265-.65.65-.65h6.2c.386 0 .65.264.65.65Zm1.5 0V20h.45c.924 0 1.512-.685 1.453-1.388l-.003-.03V11.45c0-.804-.32-1.59-.944-2.136l-.001-.001-5.006-4.406a1.856 1.856 0 0 0-2.497 0l-.006.006L5.76 9.296c-.581.589-.965 1.399-.965 2.154v7.1c0 .786.665 1.45 1.45 1.45h.55v-3.85c0-1.214.936-2.15 2.15-2.15h6.2c1.215 0 2.15.936 2.15 2.15Zm-6.5-6.4a1.25 1.25 0 1 1 2.5 0 1.25 1.25 0 0 1-2.5 0ZM12.046 7a2.75 2.75 0 1 0 0 5.5 2.75 2.75 0 0 0 0-5.5Z" clip-rule="evenodd"/>
</svg>
